X:1035
%%etbk:tnset id:78,pos:3,rep:3
%%etbk:site1 http://www.thesession.org/tunes/display/1043
T: Humors Of Kilclogher
Z: Piano Box Version by Martin Fleischmann (www.boxplayer.ch)
M: 6/8
L: 1/8
R: jig
K: Ador
|: !4!B | "C"!3!AGE !2!G2E | !5!c2!1!E !2!G2!1!E | "D"!1!D !3!(3D!2!D!1!D !1!D2E | !4!GED !1!D2!4!B |
"C"!3!AGE !2!G2E | !5!c2!1!E !2!D!1!E!2!G | "D"!3![A3D] !4!BAG | !3!([A3D] [A3D]):|
|: !4!B | "C"!3!c2B !3!c2d | !5!e!3!c!1!A !1!AB!3!c | "G"!3!BAG !1!GAB | !5!dBG !1!GA!3!B |
"C"!3!c2B !3!c2d | !5!ecA !1!AB!3!c | "G"!3!BA!1!G !2!GEG | "D"!3!(A3 A3):|

